<?xml version="1.0" encoding="UTF-8"?>
<map version="1.10" tiledversion="1.11.2" orientation="orthogonal" renderorder="right-down" width="30" height="20" tilewidth="32" tileheight="32" infinite="0" nextlayerid="10" nextobjectid="119">
 <tileset firstgid="1" source="trest tiles.tsx"/>
 <tileset firstgid="65" source="Pilzhaus 1.3.tsx"/>
 <tileset firstgid="3788" source="häuser tiles.tsx"/>
 <layer id="2" name="grundebene" width="30" height="20">
  <data encoding="csv">
45,1,1,1,1,1,1,1,1,1,1,1,1,2,2,2,2,2,2,2,2,1,1,1,1,1,1,1,1,1,
45,1,1,1,1,1,1,1,2,2,2,2,2,2,2,2,2,1,1,1,1,1,1,1,1,1,45,2,45,45,
3,4,5,4,5,5,5,24,45,45,1,45,45,2,2,1,1,1,2,2,45,45,45,45,1,1,1,1,1,45,
1,1,45,2,45,2,23,32,1,45,1,45,45,1,45,45,45,2,2,45,2,45,45,45,45,45,45,1,1,45,
1,1,45,2,2,23,32,2,1,2,1,2,45,1,45,1,45,45,1,1,2,2,2,2,2,45,45,1,1,45,
1,1,45,2,2,21,2,2,2,2,45,2,2,1,45,1,1,1,1,45,1,2,1,2,45,45,45,1,1,45,
1,1,2,2,45,29,17,18,19,20,3,4,5,24,45,45,45,45,45,45,1,2,1,2,45,45,1,1,2,45,
1,1,2,23,4,32,25,26,27,28,45,45,2,31,24,45,45,45,45,1,1,2,1,45,2,45,1,45,2,45,
1,1,2,29,2,2,33,34,35,36,2,2,45,2,31,24,45,45,45,1,45,1,1,1,2,1,1,45,2,45,
1,1,2,31,24,45,41,42,43,44,45,2,2,45,2,31,24,45,45,1,2,1,45,1,1,1,1,1,2,45,
1,1,45,2,31,24,49,50,51,52,45,2,2,2,2,2,21,45,1,1,2,2,1,1,1,2,1,1,1,45,
1,1,45,45,2,31,4,4,4,5,24,1,1,2,2,2,29,1,45,45,45,2,1,45,2,45,1,45,1,1,
1,45,45,1,2,45,45,45,2,2,31,24,1,1,2,23,32,1,45,45,45,45,45,2,45,45,1,45,45,1,
1,1,45,1,1,2,2,2,2,2,2,31,4,5,4,32,2,45,45,45,45,45,2,45,45,45,1,45,45,45,
1,1,45,1,2,1,45,45,2,2,2,45,45,45,45,2,2,2,45,45,45,2,1,1,45,45,1,45,45,45,
1,1,45,45,2,45,1,1,2,1,1,1,1,45,45,45,1,2,2,45,2,2,1,1,1,1,1,45,45,45,
1,1,45,45,45,45,1,1,2,2,2,1,1,1,1,1,45,45,2,2,2,45,1,45,1,1,1,1,1,45,
45,1,1,1,1,1,1,1,1,1,45,45,45,45,45,45,45,1,45,45,1,1,1,1,1,1,1,1,1,1,
45,45,1,1,1,1,1,1,45,45,45,45,45,45,45,1,1,1,1,1,1,1,1,1,1,1,1,1,45,45,
45,45,45,45,45,45,45,45,1,1,1,1,1,1,1,1,1,1,1,1,1,1,1,45,45,45,45,45,1,1
</data>
 </layer>
 <layer id="6" name="wiesendetails" width="30" height="20">
  <data encoding="csv">
0,53,0,30,0,0,53,53,0,0,0,0,0,0,0,0,0,0,0,0,0,0,0,0,0,0,0,0,0,0,
0,0,0,53,0,53,12,0,0,60,0,0,0,0,14,0,0,0,0,0,0,0,0,0,0,0,0,0,0,0,
0,0,0,0,0,0,0,0,53,0,0,0,0,0,53,0,0,38,39,40,0,0,0,0,0,0,0,0,0,0,
11,0,0,0,0,0,0,0,63,0,60,0,0,0,0,0,53,46,47,48,0,0,0,0,0,0,0,0,0,0,
61,0,0,0,0,0,0,0,12,14,0,0,0,0,53,0,0,0,0,0,0,0,0,0,0,0,0,0,0,0,
53,38,39,40,0,0,60,0,53,0,0,0,0,0,53,0,14,0,53,0,0,0,0,0,0,0,0,0,0,0,
63,46,47,48,53,0,0,0,0,0,0,0,0,0,0,0,0,0,0,0,0,0,0,0,0,0,0,0,0,0,
53,0,0,0,0,0,0,0,0,0,0,63,60,0,0,0,53,0,0,0,0,0,0,0,0,0,0,0,0,0,
0,61,0,0,0,61,0,0,0,0,38,39,40,0,0,0,0,0,0,0,0,0,0,0,0,0,0,0,0,0,
0,0,11,0,0,12,0,0,0,0,46,47,48,0,0,0,0,0,53,0,0,0,0,0,0,0,0,0,0,0,
60,61,63,0,0,0,0,0,0,0,12,0,0,0,0,61,0,0,0,0,0,0,0,0,0,0,0,0,0,0,
0,14,0,53,0,0,0,0,0,0,0,0,0,0,0,0,0,0,12,0,0,11,0,0,0,0,0,0,0,0,
0,0,0,53,53,0,0,0,63,0,0,0,0,0,0,0,0,0,0,53,0,0,0,0,0,0,0,0,0,0,
0,60,0,0,0,0,11,0,0,53,0,0,0,0,0,0,0,14,0,0,0,12,0,0,0,0,0,0,0,0,
0,0,0,0,30,0,0,61,0,0,0,0,61,0,0,0,63,0,0,0,0,0,0,0,0,0,0,0,0,0,
0,0,0,0,0,0,0,0,0,0,0,0,0,0,63,11,0,53,0,0,0,0,0,0,0,0,0,0,0,0,
0,0,0,0,0,0,0,63,0,0,63,0,0,0,0,0,0,0,0,0,0,0,0,0,0,0,0,0,0,0,
0,0,0,0,0,0,0,0,0,0,0,0,0,0,0,0,0,0,0,0,0,0,0,0,0,0,0,0,0,0,
0,0,0,0,0,0,0,0,0,0,0,0,0,0,0,0,0,0,0,0,0,0,0,0,0,0,0,0,0,0,
0,0,0,0,0,0,0,0,0,0,0,0,0,0,0,0,0,0,0,0,0,0,0,0,0,0,0,0,0,0
</data>
 </layer>
 <objectgroup id="7" name="Pilzhaus" offsetx="-23.5" offsety="26.5">
  <object id="14" gid="3792" x="74.6667" y="101.333" width="32" height="32"/>
  <object id="15" gid="3792" x="164.667" y="98" width="32" height="32"/>
  <object id="17" gid="3789" x="95.3333" y="97.3333" width="32" height="32"/>
  <object id="18" gid="3790" x="128" y="97.3333" width="32" height="32"/>
  <object id="19" gid="3788" x="63.5" y="96.5" width="32" height="32"/>
  <object id="20" gid="3791" x="160" y="97.5" width="32" height="32"/>
  <object id="21" gid="3797" x="95" y="128.5" width="32" height="32"/>
  <object id="22" gid="3796" x="64" y="128" width="32" height="32"/>
  <object id="23" gid="3798" x="127" y="129" width="32" height="32"/>
  <object id="24" gid="3799" x="159" y="128.5" width="32" height="32"/>
  <object id="25" gid="3800" x="189" y="127.5" width="32" height="32"/>
  <object id="27" gid="3808" x="189.25" y="159.25" width="32" height="32"/>
  <object id="28" gid="3807" x="158.5" y="159.5" width="32" height="32"/>
  <object id="30" gid="3806" x="126.75" y="160.5" width="32" height="32"/>
  <object id="31" gid="3805" x="95" y="160.5" width="32" height="32"/>
  <object id="32" gid="3804" x="63.25" y="160" width="32" height="32"/>
  <object id="33" gid="3813" x="95" y="192.75" width="32" height="32"/>
  <object id="34" gid="3812" x="63.25" y="193.25" width="32" height="32"/>
  <object id="35" gid="3814" x="127" y="191.75" width="32" height="32"/>
  <object id="36" gid="3815" x="158.25" y="191.25" width="32" height="32"/>
  <object id="37" gid="3790" x="126.75" y="97.75" width="32" height="32"/>
  <object id="62" gid="3845" x="416" y="392.75" width="32" height="32"/>
  <object id="65" gid="3844" x="384.25" y="392.75" width="32" height="32"/>
  <object id="66" gid="3836" x="384.5" y="361.5" width="32" height="32"/>
  <object id="67" gid="3828" x="385" y="330.25" width="32" height="32"/>
  <object id="68" gid="3829" x="416.5" y="330.25" width="32" height="32"/>
  <object id="69" gid="3820" x="384.75" y="298.5" width="32" height="32"/>
  <object id="70" gid="3821" x="415.75" y="298.25" width="32" height="32"/>
  <object id="71" gid="3822" x="447.75" y="298.25" width="32" height="32"/>
  <object id="80" gid="3837" x="416.25" y="361.375" width="32" height="32"/>
  <object id="81" gid="3830" x="447.875" y="329.625" width="32" height="32"/>
  <object id="82" gid="3838" x="448.375" y="361.125" width="32" height="32"/>
  <object id="83" gid="3846" x="447.875" y="392.75" width="32" height="32"/>
  <object id="84" gid="3847" x="478.875" y="392.375" width="32" height="32"/>
  <object id="88" gid="3839" x="479.864" y="361.136" width="32" height="32"/>
  <object id="91" gid="3831" x="479.864" y="329.5" width="32" height="32"/>
  <object id="92" gid="3823" x="479.5" y="297.682" width="32" height="32"/>
 </objectgroup>
 <objectgroup id="9" name="Schloss">
  <object id="94" gid="3849" x="347.333" y="196.333" width="32" height="32"/>
  <object id="95" gid="3850" x="378" y="196.333" width="32" height="32"/>
  <object id="97" gid="3848" x="315.333" y="196.333" width="32" height="32"/>
  <object id="98" gid="3851" x="409.667" y="196.333" width="32" height="32"/>
  <object id="99" gid="3840" x="315.333" y="164.333" width="32" height="32"/>
  <object id="100" gid="3841" x="347.667" y="165.667" width="32" height="32"/>
  <object id="101" gid="3842" x="380" y="165" width="32" height="32"/>
  <object id="102" gid="3843" x="410.333" y="165" width="32" height="32"/>
  <object id="103" gid="3832" x="315" y="132.333" width="32" height="32"/>
  <object id="104" gid="3833" x="347.333" y="133.667" width="32" height="32"/>
  <object id="105" gid="3842" x="377.667" y="163.333" width="32" height="32"/>
  <object id="106" gid="3834" x="378.667" y="132" width="32" height="32"/>
  <object id="107" gid="3835" x="410" y="132" width="32" height="32"/>
  <object id="108" gid="3825" x="347.333" y="102" width="32" height="32"/>
  <object id="109" gid="3824" x="314.667" y="102" width="32" height="32"/>
  <object id="110" gid="3826" x="379" y="102" width="32" height="32"/>
  <object id="111" gid="3827" x="411" y="102.333" width="32" height="32"/>
  <object id="112" gid="3819" x="411.333" y="71" width="32" height="32"/>
  <object id="113" gid="3818" x="379" y="70" width="32" height="32"/>
  <object id="114" gid="3817" x="347" y="70" width="32" height="32"/>
  <object id="115" gid="3816" x="315" y="69" width="32" height="32"/>
  <object id="116" gid="3816" x="313.667" y="70" width="32" height="32"/>
  <object id="117" gid="3809" x="346" y="38" width="32" height="32"/>
  <object id="118" gid="3810" x="378.667" y="38.6667" width="32" height="32"/>
 </objectgroup>
 <objectgroup id="8" name="Bienenhaus"/>
 <layer id="3" name="Häuser" width="30" height="20" visible="0">
  <data encoding="csv">
0,0,0,0,0,0,0,0,0,0,0,3809,3810,3811,3811,0,0,0,0,0,0,0,0,0,0,0,0,0,0,0,
0,0,0,0,0,0,0,0,0,0,3816,3817,3818,3819,0,0,0,0,0,0,0,0,0,0,0,0,0,0,0,0,
0,3788,3789,3790,3791,3792,0,0,0,0,3824,3825,3826,3827,0,0,0,0,0,0,0,0,0,0,0,0,0,0,0,0,
0,3796,3797,3798,3799,3800,0,0,0,0,3832,3833,3834,3835,0,0,0,0,0,0,0,0,0,0,0,0,0,0,0,0,
0,3804,3805,3806,3807,3808,0,0,0,0,3840,3841,3842,3843,0,0,0,0,0,0,0,0,0,0,0,0,0,0,0,0,
0,3812,3813,3814,3815,0,0,0,0,0,3848,3849,3850,3851,0,0,0,0,0,0,0,0,0,0,0,0,0,0,0,0,
0,0,0,0,0,0,0,0,0,0,0,0,0,0,0,0,0,0,0,0,0,0,0,0,0,0,0,0,0,0,
0,0,0,0,0,0,0,0,0,0,0,0,0,0,0,0,0,0,0,0,0,0,0,0,0,0,0,0,0,0,
0,0,0,0,0,0,0,0,0,0,0,0,0,0,0,0,0,0,0,0,0,0,0,0,0,0,0,0,0,0,
0,0,0,0,0,0,0,0,0,0,0,3820,3821,3822,3823,0,0,0,0,0,0,0,0,0,0,0,0,0,0,0,
0,0,0,0,0,0,0,0,0,0,0,3828,3829,3830,3831,0,0,0,0,0,0,0,0,0,0,0,0,0,0,0,
0,0,0,0,0,0,0,0,0,0,0,3836,3837,3838,3839,0,0,0,0,0,0,0,0,0,0,0,0,0,0,0,
0,0,0,0,0,0,0,0,0,0,0,3844,3845,3846,3847,0,0,0,0,0,0,0,0,0,0,0,0,0,0,0,
0,0,0,0,0,0,0,0,0,0,0,0,0,0,0,0,0,0,0,0,0,0,0,0,0,0,0,0,0,0,
0,0,0,0,0,0,0,0,0,0,0,0,0,0,0,0,0,0,0,0,0,0,0,0,0,0,0,0,0,0,
0,0,0,0,0,0,0,0,0,0,0,0,0,0,0,0,0,0,0,0,0,0,0,0,0,0,0,0,0,0,
0,0,0,0,0,0,0,0,0,0,0,0,0,0,0,0,0,0,0,0,0,0,0,0,0,0,0,0,0,0,
0,0,0,0,0,0,0,0,0,0,0,0,0,0,0,0,0,0,0,0,0,0,0,0,0,0,0,0,0,0,
0,0,0,0,0,0,0,0,0,0,0,0,0,0,0,0,0,0,0,0,0,0,0,0,0,0,0,0,0,0,
0,0,0,0,0,0,0,0,0,0,0,0,0,0,0,0,0,0,0,0,0,0,0,0,0,0,0,0,0,0
</data>
 </layer>
</map>
